assets/icons/24px/stroke/circle-circle-up-24px.svg

<svg width="24" height="24" viewBox="0 0 24 24" fill="none" xmlns="http://www.w3.org/2000/svg">
<path fill-rule="evenodd" clip-rule="evenodd" d="M12 4C7.58172 4 4 7.58172 4 12C4 16.4183 7.58172 20 12 20C16.4183 20 20 16.4183 20 12C20 7.58172 16.4183 4 12 4ZM2 12C2 6.47715 6.47715 2 12 2C17.5228 2 22 6.47715 22 12C22 17.5228 17.5228 22 12 22C6.47715 22 2 17.5228 2 12Z" fill="white"/>
<path d="M10.304 9.71364L8.91248 11.94C8.06685 13.2931 7.64403 13.9696 7.92959 14.4848C8.21516 15 9.01293 15 10.6085 15H13.3915C14.987 15 15.7848 15 16.0704 14.4848C16.3559 13.9696 15.9331 13.2931 15.0875 11.94L13.696 9.71364C12.9348 8.49577 12.5542 7.88684 12 7.88684C11.4457 7.88684 11.0652 8.49577 10.304 9.71364Z" fill="white"/>
</svg>

<svg width="24" height="24" fill="none" xmlns="http://www.w3.org/2000/svg"><path fill-rule="evenodd" clip-rule="evenodd" d="M12 4a8 8 0 1 0 0 16 8 8 0 0 0 0-16zM2 12C2 6.477 6.477 2 12 2s10 4.477 10 10-4.477 10-10 10S2 17.523 2 12z" fill="#fff"/><path d="M10.304 9.714L8.912 11.94c-.845 1.353-1.268 2.03-.982 2.545.285.515 1.083.515 2.678.515h2.784c1.595 0 2.393 0 2.678-.515.286-.515-.137-1.192-.982-2.545l-1.392-2.226C12.935 8.496 12.554 7.887 12 7.887s-.935.609-1.696 1.827z" fill="#fff"/></svg>
